!! 00000] TT[WS
!!!OTL: Ba cong
!!!ARE: Asia, China, Shanxi Xingxian
!! Ethnic Group: Han
!! WII, 53 (2)
!!!SCT: J0473
!!!YEM: Copyright 1995, estate of Helmut Schaffrath.
**kern
*ICvox
*Ivox
*M2/4
*k[b-e-]
*B-:
{8ggg
8fff
8eee-
8fff
=1
2ccc
=2
8ggg
8fff
8eee-
8fff
=3
2ccc}
=4
{8aa
8bb-
4ccc
=5
8ggg
4fff
8fff
=6
4ccc
4fff
=7
8ccc
8eee-
8ccc
8bb-}
=8
{8bb-
4ff
8gg
=9
4bb-
8ddd
8ccc
=10
8bb-
8gg
8ff
8dd
=11
2ff}
==
!!!AGN: Xiaodiao. Qingge, Sichun
!!!ONB: ESAC (Essen Associative Code) Database: CHINA
!!!AMT: simple duple
!!!AIN: vox
!!!EED: Helmut Schaffrath
!!!EEV: 1.0
*-
